src/actions/22/view-pim-notes.svg

<svg xmlns="http://www.w3.org/2000/svg" viewBox="0 0 22 22">
    <path d="M3 3v16h16V3h-1v1h-2V3h-1v1h-2V3h-1v1h-2V3H9v1H7V3H6v1H4V3H3zm1 3h14v12H4V6zm2 2v1h10V8H6zm0 3v1h6v-1H6zm0 3v1h8v-1H6zm8 2v1h2v-1h-2z" style="fill:currentColor;fill-opacity:1;stroke:none;color:#050505;opacity:.7"/>
</svg>

<svg xmlns="http://www.w3.org/2000/svg" viewBox="0 0 22 22">
  <defs id="defs3051">
    <style type="text/css" id="current-color-scheme">
      .ColorScheme-Text {
        color:#363636;
      }
      </style>
  </defs>
 <path 
    style="fill:currentColor;fill-opacity:1;stroke:none" 
    d="M 3 3 L 3 5 L 3 6 L 3 19 L 4 19 L 12 19 L 14 19 L 16 19 L 18 19 L 19 19 L 19 16 L 19 14 L 19 5 L 19 3 L 18 3 L 18 4 L 16 4 L 16 3 L 15 3 L 15 4 L 13 4 L 13 3 L 12 3 L 12 4 L 10 4 L 10 3 L 9 3 L 9 4 L 7 4 L 7 3 L 6 3 L 6 4 L 4 4 L 4 3 L 3 3 z M 4 6 L 18 6 L 18 7 L 18 8 L 18 9 L 18 10 L 18 15 L 18 17 L 18 18 L 17 18 L 15 18 L 12 18 L 4 18 L 4 10 L 4 9 L 4 8 L 4 7 L 4 6 z M 6 8 L 6 9 L 16 9 L 16 8 L 6 8 z M 6 11 L 6 12 L 12 12 L 12 11 L 6 11 z M 6 14 L 6 15 L 14 15 L 14 14 L 6 14 z M 14 16 L 14 17 L 16 17 L 16 16 L 14 16 z "
	class="ColorScheme-Text"
    />  
</svg>
